packages/core/src/svgs/tokens/mono/WHALE.svg

<svg width="24" height="24" viewBox="0 0 24 24" fill="none" xmlns="http://www.w3.org/2000/svg">
<path fill-rule="evenodd" clip-rule="evenodd" d="M2 11.9999C2 11.7899 2.00624 11.5813 2.01874 11.3749H2V9.49994H19.733C18.6787 6.2356 15.615 3.87499 11.9999 3.87499C11.7894 3.87499 11.5813 3.88311 11.3749 3.89874V2.01874C11.5813 2.00624 11.7899 2 11.9999 2C17.5231 2 22 6.47622 22 11.9999C22 17.5225 17.5231 22 11.9999 22C6.47685 22 2 17.5231 2 11.9999ZM3.87499 11.9999C3.87499 11.7894 3.88311 11.5813 3.89874 11.3749H5.15311C5.13436 11.5813 5.12498 11.7894 5.12498 11.9999C5.12498 15.7969 8.2031 18.8749 11.9999 18.8749C12.2069 18.8749 12.4125 18.8656 12.6143 18.8481V16.9625C11.8586 17.0561 11.0917 16.9759 10.3717 16.728C9.65175 16.4802 8.99798 16.0712 8.46016 15.5322C7.92233 14.9932 7.5147 14.3385 7.26836 13.6181C7.02203 12.8976 6.94349 12.1303 7.03873 11.3749H20.1013C20.1169 11.5813 20.1249 11.7894 20.1249 11.9999C20.1249 16.4875 16.4875 20.1249 11.9999 20.1249C7.51248 20.1249 3.87499 16.4875 3.87499 11.9999ZM11.9999 15.7499C12.3314 15.7499 12.6495 15.6182 12.8838 15.3839C13.1182 15.1494 13.25 14.8314 13.25 14.5C13.25 14.1685 13.1182 13.8504 12.8838 13.6161C12.6495 13.3817 12.3314 13.25 11.9999 13.25C11.6685 13.25 11.3506 13.3817 11.1161 13.6161C10.8817 13.8504 10.75 14.1685 10.75 14.5C10.75 14.8314 10.8817 15.1494 11.1161 15.3839C11.3506 15.6182 11.6685 15.7499 11.9999 15.7499Z" fill="white"/>
</svg>

<svg xmlns="http://www.w3.org/2000/svg" width="24" height="24" fill="none" viewBox="0 0 24 24">
    <path fill="#fff" fill-rule="evenodd" d="M2 12q0-.316.019-.625H2V9.5h17.733a8.13 8.13 0 0 0-8.358-5.601v-1.88q.31-.02.625-.019c5.523 0 10 4.476 10 10 0 5.523-4.477 10-10 10S2 17.523 2 12m1.875 0q0-.316.024-.625h1.254a6.875 6.875 0 0 0 7.461 7.473v-1.886a5 5 0 0 1-5.575-5.587H20.1q.024.309.024.625A8.125 8.125 0 0 1 12 20.125 8.125 8.125 0 0 1 3.875 12M12 15.75a1.25 1.25 0 1 0 0-2.5 1.25 1.25 0 0 0 0 2.5" clip-rule="evenodd"/>
</svg>
